X: 457
T:Manitoba's Golden Boy
N: page 184
N: heptatonic
R: two-step
M:2/4
L:1/8
C:Andy De Jarlis
K:D
(FG)|:"D"A2 (d>e)|f3 (c/2d/2)|"G"ed cB|"D"A3 F|
[1"G"G2 e>e|e3 G|"D"F2 d>d|d2 (FG):|
[2"G"G2 (ed)|"A"cA Bc|"D"(d4|d2) e>f|
|:"G"gB gB|g2 a>g|"D"fA fA|f2 g>f|
"A"eA cD|eg fe|[1"D"(f4|f2)e>f:|[2"D"(d4|d2)||
%newpage
